static/assets/images/products/kubestash/addons/elasticsearch-stash-addon.svg

<svg width="32" height="32" viewBox="0 0 32 32" fill="none" xmlns="http://www.w3.org/2000/svg">
<g clip-path="url(#clip0)">
<path d="M0 14.7054C0 14.098 0.15984 13.4586 0.255744 12.8832C0.351648 12.2758 0.447552 12.052 0.543457 11.6364C0.575425 11.5725 0.607393 11.5086 0.671329 11.4446C0.735265 11.4127 0.799201 11.3807 0.895105 11.4127H12.3077C12.3716 11.4127 12.4036 11.4127 12.4675 11.4127C12.5315 11.4127 12.5634 11.4446 12.5954 11.4766C12.6274 11.5086 12.6593 11.5405 12.6913 11.6045C12.7233 11.6364 12.7233 11.7004 12.7233 11.7323C13.4266 14.5775 13.4266 17.5505 12.7233 20.3957C12.7233 20.4276 12.6913 20.4596 12.6593 20.4916C12.6274 20.5235 12.5954 20.5555 12.5634 20.5555C12.5315 20.5555 12.4995 20.5875 12.4356 20.5875C12.4036 20.5875 12.3716 20.5875 12.3077 20.5555H1.05495C0.991009 20.5555 0.895105 20.5555 0.831169 20.4916C0.767233 20.4596 0.703297 20.3957 0.703297 20.2998C0.31968 19.3407 0.0959041 18.3177 0 17.2628V16.8153V14.7054Z" fill="#1971BD"/>
<path d="M32 6.58545C30.7852 7.76826 29.2507 8.56747 27.5884 8.85518C26.8851 8.98305 26.1818 9.04699 25.4785 9.04699L14.2258 8.95108C14.002 8.95108 13.9381 8.95108 13.8741 8.66337C13.1389 6.68135 12.0839 4.82721 10.8052 3.1329C10.4535 2.65338 10.038 2.2378 9.65434 1.79024C13.3946 0.0320013 17.5824 -0.447519 21.6423 0.415618C25.6703 1.27875 29.3147 3.45258 32 6.58545Z" fill="#1971BD"/>
<path d="M7.8002 2.78125C9.46253 4.69933 10.8691 6.80922 11.988 9.11092H1.79021C3.16483 6.45757 5.24275 4.28375 7.8002 2.78125Z" fill="#1971BD"/>
<path d="M7.57643 28.9631C5.08292 27.4925 3.005 25.3826 1.5984 22.8252H11.7962C10.8691 25.1589 9.43057 27.2688 7.57643 28.9631Z" fill="#1971BD"/>
<path d="M22.4735 18.1578C24.3916 17.7422 26.1179 17.966 27.6523 18.957C28.1319 18.4135 28.4835 17.7742 28.6434 17.0709C28.8352 16.3356 28.8032 15.5684 28.6114 14.8331C28.4196 14.0979 28.036 13.4265 27.4925 12.915C26.981 12.4036 26.4056 12.0199 25.7343 11.7642C25.0629 11.5084 24.3596 11.3806 23.6563 11.4125H14.8012C15.5684 14.4175 15.5684 17.5504 14.8012 20.5554V20.5874H18.6693C19.6923 19.3086 21.0989 18.4775 22.4735 18.1578Z" fill="#1971BD"/>
<path d="M15.1848 30.6893C14.6094 28.8032 15.2488 26.7892 16.8472 25.6384C17.1349 25.4146 17.2627 25.2228 17.2627 24.8392C17.2627 24.1359 17.3587 23.4646 17.5505 22.8572L14.3217 22.8891C14.2258 22.8891 14.1299 22.8891 14.034 22.9531C13.9381 23.017 13.9061 23.1129 13.8741 23.2088C12.9471 25.7663 11.5405 28.068 9.68633 30.05C9.68633 30.1779 9.68633 30.1779 9.68633 30.1779C11.2528 30.8812 12.9151 31.3926 14.6094 31.7123L15.7922 31.8722C15.5045 31.5205 15.3127 31.1369 15.1848 30.6893Z" fill="#1971BD"/>
<path d="M26.4056 21.4827C27.972 23.0491 29.6024 24.6475 31.2647 26.3098C30.4975 26.3098 29.7303 26.3098 28.8991 26.3098C28.8991 28.0041 28.8991 29.6665 28.8991 31.3288C27.1728 31.3288 25.5425 31.3288 23.8481 31.3288C23.8481 29.6665 23.8481 28.0361 23.8481 26.3418C23.017 26.3418 22.2497 26.3418 21.4505 26.3418C23.1449 24.6795 24.8072 23.0811 26.4056 21.4827Z" fill="#1971BD"/>
</g>
<defs>
<clipPath id="clip0">
<rect width="32" height="31.8721" fill="white"/>
</clipPath>
</defs>
</svg>

<svg xmlns="http://www.w3.org/2000/svg" width="32" height="32" fill="none" xmlns:v="https://vecta.io/nano"><g clip-path="url(#A)" fill="#1971bd"><path d="M0 14.705c0-.607.16-1.247.256-1.822.096-.607.192-.831.288-1.247a.67.67 0 0 1 .128-.192c.064-.032.128-.064.224-.032h11.413.16c.064 0 .096.032.128.064a.44.44 0 0 1 .096.128c.032.032.032.096.032.128a18.05 18.05 0 0 1 0 8.663c0 .032-.032.064-.064.096s-.064.064-.096.064-.064.032-.128.032c-.032 0-.064 0-.128-.032H1.055c-.064 0-.16 0-.224-.064-.064-.032-.128-.096-.128-.192C.32 19.341.096 18.318 0 17.263v-.447-2.11zm32-8.12c-1.215 1.183-2.749 1.982-4.412 2.27a11.76 11.76 0 0 1-2.11.192l-11.253-.096c-.224 0-.288 0-.352-.288-.735-1.982-1.79-3.836-3.069-5.53-.352-.48-.767-.895-1.151-1.343C13.395.032 17.582-.448 21.642.416A18.87 18.87 0 0 1 32 6.586zM7.8 2.781c1.662 1.918 3.069 4.028 4.188 6.33H1.79a15.71 15.71 0 0 1 6.01-6.33zm-.224 26.182a16.21 16.21 0 0 1-5.978-6.138h10.198a16.63 16.63 0 0 1-4.22 6.138zm14.898-10.805c1.918-.416 3.644-.192 5.179.799.48-.544.831-1.183.991-1.886.192-.735.16-1.503-.032-2.238a4.02 4.02 0 0 0-1.119-1.918 4.94 4.94 0 0 0-1.758-1.151c-.671-.256-1.375-.384-2.078-.352h-8.855a18.45 18.45 0 0 1 0 9.143v.032h3.868c1.023-1.279 2.43-2.11 3.804-2.43zm-7.289 12.531c-.575-1.886.064-3.9 1.662-5.051.288-.224.415-.416.415-.799 0-.703.096-1.375.288-1.982l-3.229.032c-.096 0-.192 0-.288.064s-.128.16-.16.256c-.927 2.558-2.334 4.859-4.188 6.841v.128a22 22 0 0 0 4.923 1.534l1.183.16a3.2 3.2 0 0 1-.607-1.183zm11.221-9.206l4.859 4.827h-2.366v5.019h-5.051v-4.987H21.45l4.955-4.859z"/></g><defs><clipPath id="A"><path fill="#fff" d="M0 0h32v31.872H0z"/></clipPath></defs></svg>
